X:1
T:Paedia, LM
T:Johann Abraham Peter Schulz, 1789
T:Paedia, LM
T:Public Domain
C:Johann Abraham Peter Schulz, 1789
Z:Public Domain
%%score ( 1 2 ) ( 3 4 )
L:1/8
M:none
K:F
V:1 treble 
V:2 treble 
V:3 bass 
V:4 bass 
V:1
 (FG) | [FA]2 [FA]2 [FB]2 [FB]2 | F2 (D[EG]) F2 (FA) | [Fc]2 [Fc]2 [Fd]2 [Fd]2 | %4
 G2 E-[EB] [FA]2 (AG) | [DF]2 [DF]2 [DB]2 [DB]2 | [EG]2 [EG]2 [Fc]2 [^FA]2 | %7
 [GB]2 [EG]2 [FA]2 [CF]2 | [B,D]4 [CE]4 | [CF]6 |] %10
V:2
 F2 | x8 | A3 F2 C2 x | x8 | c3 x ^C2 x2 | x8 | x8 | x8 | x8 | x6 |] %10
V:3
 (A,B,) | [F,C]2 [E,C]2 [D,B,]2 [B,,D]2 | [F,C]2 [F,B,]2 [F,A,]2 (A,F,) | %3
 [C,G,]2 [A,,C]2 [B,,B,]2 [D,B,]2 | [E,G,]2 [C,C]2 [F,C]2 [A,,A,]2 | %5
 [D,A,]2 [C,A,]2 [B,,G,]2 [G,,B,]2 | [C,C]2 [B,,C]2 [A,,C]2 [D,D]2 | %7
 [G,,D]2 [C,C]2 [F,,C]2 [A,,F,]2 | (B,,2 A,,2) (G,,2 C,2) | [F,A,]6 |] %10
V:4
 F,2 | x8 | x6 F,2 | x8 | x8 | x8 | x8 | x8 | F,4 B,4 | x6 |] %10

